X:655
T:The Merrymakers' Jubilee
C:Joan Gilbert, 1996
L:1/4
M:2/2
R:Reel
S:Colin Hume's website,  colinhume.com  - chords can also be printed below the stave.
Q:1/2=110
%%MIDI ratio 3 1
K:C
P:A
"C"ge ed/e/ | "/"dc cA/B/ | "/"AG GE | "/"G3 e/f/ |\
"Dm"ed "G7"dd/e/ | "C"dc "Am"c2 | "D"Bd e^f | "G7"ag=fd |
"C"ge ed/e/ | "/"dc cA/B/ | "/"AG cc | "F"c2 z2 |\
"F"AB/c/ "D"dc | "Em"ag "Am"ec | "Dm"Ac "G7"B/c/d | "C"c2 z2 |
P:B
K:G
"G"Bd Ad | "Em"Gd "Bm"Fd | "C"EG "Am"E/F/G | "D"F2 z2 |\
"Am"ce "E"Be | "Am"Ae "Em"Ge | "D"FG ^GA | "Am"BA "D"FD |
"G"Bd Ad | "Em"Gd "D"Fd | "G7"ed B/A/G | "C"g2 z2 |\
"A7"ag "D7"g/f/e | "G"ed "Bm"BG | "Am"e/d/c "D7"c/B/A | "G"G2 "G7"z2 |
P:C
K:C
"C"GA AG | "/"Gc c2 | "/"G>A AG | "G"B2 z2 |\
"G"GA AG | "G7"Gd d2 | "Dm"f>e d^c | "G7"ed BA |
"C"GA AG | "/"Gc c2 | "/"g>e dc | "F"A2 z2 |\
"F"a/g/f "Dm"f/e/d | "Em"g/f/e "Am"e/d/c | "Dm"f/e/d "G7"d/c/B | "C"c2 z2 |]

